X: 1603
T: Harvest Home, The
R:hornpipe
N:
B:O'Neill's 1603
Z:Transcribed by Michael Hogan
M:C|
L:1/8
K:D
(AF) | DAFA DAFA | defe dcBA | eAfA gAfA | edcB AGFE |
DAFA DAFA | defe dcBA | dAFA fgec | d2 d2 d2 :|
|: (cd) | e>A (3AAA f>A (3AAA | e>A (3AAA f>A (3AAA | eAfA gAfA | (3efe (3dcB (3ABA (3GFE |
DAFA DAFA | defe dcBA | dAFA fgec | d2 d2 d2 :|


